X: 303
Q: "Slowish"
M: 2/4
L: 1/16
K: Bb
V: 1
dc |\
|: dc |\
f3d B2(AG) | F2GA B2cd | e2e2 ( dcBA) | (cBA).c B2 :|
V: 2 clef=bass middle=d
z2 |\
z2d2f2d2 | e2E2G2B2 | c2=e2f2F2 | B2b2 B2 :|
|: z2 |\
b2B2d2f2 | B2b2a2f2 | e2g2c'2a2 | f2g2a2f2 |\


